;FLAVOR:UltiGCode
;TIME:19462
;MATERIAL:18341
;MATERIAL2:0
;NOZZLE_DIAMETER:0.4
;MINX:69.106
;MINY:95.522
;MINZ:0.27
;MAXX:165.003
;MAXY:199.668
;MAXZ:10.37
;Generated with Cura_SteamEngine 4.1.0
M82 ;absolute extrusion mode

G92 E0
G92 E0
G10
;LAYER_COUNT:102
;LAYER:0
M107
G0 F4320 X82.906 Y97.568 Z0.27
;TYPE:SKIRT
G11
G1 F1800 X83.11 Y97.395 E0.02528
G1 X83.226 Y97.305 E0.03915
G1 X83.647 Y97.029 E0.08672
G1 X84.106 Y96.823 E0.13427
G1 X84.364 Y96.743 E0.15979
G1 X85.25 Y96.51 E0.24637
G1 X85.307 Y96.496 E0.25191
G1 X88.118 Y95.812 E0.5253
G1 X88.158 Y95.803 E0.52918
G1 X88.828 Y95.649 E0.59414
G1 X89.418 Y95.57 E0.6504
G1 X90.628 Y95.524 E0.76482
G1 X90.749 Y95.522 E0.77626
G1 X142.803 Y95.522 E5.69536
G1 X143.309 Y95.529 E5.74319
G1 X143.512 Y95.539 E5.76239
G1 X144.77 Y95.637 E5.88163
G1 X144.837 Y95.643 E5.88799
G1 X150.402 Y96.196 E6.41647
G1 X150.445 Y96.2 E6.42055
G1 X151.107 Y96.275 E6.48351
G1 X151.735 Y96.412 E6.54425
G1 X152.222 Y96.571 E6.59267
G1 X152.324 Y96.606 E6.60286
G1 X152.549 Y96.688 E6.62549
G1 X152.625 Y96.717 E6.63318
G1 X153.029 Y96.876 E6.6742
G1 X153.06 Y96.888 E6.67734
G1 X154.958 Y97.658 E6.8709
G1 X155 Y97.676 E6.87522
G1 X155.686 Y97.966 E6.9456
G1 X156.133 Y98.198 E6.9932
G1 X156.528 Y98.489 E7.03956
G1 X157.174 Y99.048 E7.12029
G1 X157.244 Y99.11 E7.12913
G1 X157.844 Y99.661 E7.20611
G1 X158.186 Y100.03 E7.25365
G1 X158.466 Y100.449 E7.30127
G1 X158.659 Y100.859 E7.3441
G1 X159.026 Y101.812 E7.4406
G1 X159.064 Y101.916 E7.45107
G1 X159.272 Y102.518 E7.51126
G1 X159.398 Y103.006 E7.55888
G1 X159.445 Y103.497 E7.6055
G1 X159.461 Y104.38 E7.68895
G1 X159.462 Y104.435 E7.69415
G1 X159.481 Y128.481 E9.9665
G1 X159.481 Y128.531 E9.97122
G1 X159.448 Y130.738 E10.17981
G1 X159.448 Y133.463 E10.43732
G1 X159.527 Y136.218 E10.69778
G1 X159.682 Y138.964 E10.95769
G1 X159.912 Y141.65 E11.21244
G1 X160.225 Y144.405 E11.47446
G1 X160.612 Y147.111 E11.73278
G1 X161.071 Y149.791 E11.98973
G1 X161.615 Y152.499 E12.25075
G1 X162.217 Y155.116 E12.50451
G1 X162.919 Y157.809 E12.76751
G1 X163.683 Y160.438 E13.02623
G1 X164.632 Y163.398 E13.31997
G1 X164.643 Y163.434 E13.32353
G1 X164.864 Y164.153 E13.39461
G1 X164.973 Y164.645 E13.44223
G1 X165.003 Y165.147 E13.48975
G1 X164.954 Y165.649 E13.53742
G1 X164.866 Y166.013 E13.57281
G1 X164.465 Y167.327 E13.70263
G1 X163.698 Y169.977 E13.96334
G1 X163.015 Y172.611 E14.22048
G1 X162.404 Y175.269 E14.47821
G1 X161.86 Y177.987 E14.74016
G1 X161.407 Y180.651 E14.99552
G1 X161.022 Y183.377 E15.25569
G1 X160.714 Y186.095 E15.51418
G1 X160.486 Y188.813 E15.77193
G1 X160.401 Y190.427 E15.92467
G1 X160.399 Y190.459 E15.9277
G1 X160.328 Y191.597 E16.03545
G1 X160.241 Y192.161 E16.08938
G1 X160.156 Y192.505 E16.12286
G1 X159.996 Y192.985 E16.17068
G1 X159.817 Y193.406 E16.21391
G1 X159.776 Y193.498 E16.22342
G1 X159.474 Y194.15 E16.29133
G1 X159.227 Y194.589 E16.33893
G1 X158.913 Y194.983 E16.38654
G1 X158.541 Y195.323 E16.43416
G1 X158.121 Y195.599 E16.48166
G1 X157.661 Y195.806 E16.52933
G1 X157.173 Y195.938 E16.5771
G1 X156.441 Y196.074 E16.64746
G1 X156.378 Y196.085 E16.6535
G1 X153.614 Y196.541 E16.91823
G1 X153.614 Y196.54 E16.91832
G1 X150.896 Y197.006 E17.17892
G1 X148.218 Y197.543 E17.43703
G1 X145.542 Y198.158 E17.69651
G1 X143.128 Y198.782 E17.93213
G1 X142.766 Y198.853 E17.96699
G1 X141.638 Y199.008 E18.07459
G1 X141.527 Y199.022 E18.08516
G1 X136.042 Y199.579 E18.60616
G1 X135.996 Y199.583 E18.61052
G1 X135.295 Y199.644 E18.67701
G1 X135.127 Y199.654 E18.69292
G1 X134.8 Y199.665 E18.72384
G1 X134.693 Y199.667 E18.73395
G1 X80.826 Y199.668 E23.82438
G1 X80.782 Y199.668 E23.82854
G1 X80.132 Y199.659 E23.88997
G1 X79.491 Y199.584 E23.95096
G1 X78.428 Y199.349 E24.05384
G1 X78.363 Y199.334 E24.06014
G1 X75.338 Y198.599 E24.35432
G1 X75.26 Y198.579 E24.36193
G1 X74.764 Y198.445 E24.41048
G1 X74.29 Y198.276 E24.45804
G1 X73.848 Y198.033 E24.5057
G1 X73.442 Y197.717 E24.55432
G1 X72.942 Y197.257 E24.61853
G1 X72.908 Y197.225 E24.62294
G1 X72.22 Y196.573 E24.71251
G1 X72.184 Y196.538 E24.71726
G1 X71.691 Y196.056 E24.78241
G1 X71.609 Y195.973 E24.79344
G1 X71.533 Y195.893 E24.80387
G1 X71.216 Y195.501 E24.85151
G1 X70.965 Y195.065 E24.89905
G1 X70.824 Y194.714 E24.93479
G1 X70.75 Y194.493 E24.95682
G1 X70.731 Y194.432 E24.96286
G1 X70.651 Y194.176 E24.9882
G1 X70.642 Y194.148 E24.99098
G1 X70.317 Y193.073 E25.09711
G1 X70.15 Y192.491 E25.15433
G1 X70.05 Y191.997 E25.20196
G1 X70.028 Y191.679 E25.23208
G1 X70.008 Y190.685 E25.32603
G1 X70.007 Y190.623 E25.33189
G1 X69.993 Y166.698 E27.5928
G1 X69.993 Y166.65 E27.59734
G1 X70.003 Y165.966 E27.66199
G1 X70.051 Y165.464 E27.70964
G1 X70.119 Y165.162 E27.73889
G1 X70.356 Y164.309 E27.82256
G1 X70.372 Y164.253 E27.82806
G1 X70.581 Y163.551 E27.89728
G1 X70.593 Y163.511 E27.90122
G1 X70.805 Y162.832 E27.96844
G1 X70.933 Y162.493 E28.00269
G1 X71.261 Y161.752 E28.07926
G1 X72.35 Y159.186 E28.34269
G1 X73.363 Y156.602 E28.60497
G1 X74.269 Y154.076 E28.85856
G1 X75.128 Y151.461 E29.11867
G1 X75.915 Y148.808 E29.38018
G1 X76.607 Y146.207 E29.63452
G1 X77.247 Y143.504 E29.89702
G1 X77.799 Y140.836 E30.15449
G1 X78.274 Y138.145 E30.41272
G1 X78.677 Y135.433 E30.67181
G1 X79.002 Y132.703 E30.93162
G1 X79.248 Y129.994 E31.18868
G1 X79.42 Y127.242 E31.44925
G1 X79.512 Y124.524 E31.70624
G1 X79.532 Y122.565 E31.89138
G1 X79.533 Y104.403 E33.60769
G1 X79.533 Y104.36 E33.61175
G1 X79.542 Y103.689 E33.67517
G1 X79.589 Y103.188 E33.72272
G1 X79.661 Y102.87 E33.75353
G1 X79.939 Y101.884 E33.85034
G1 X79.956 Y101.827 E33.85596
G1 X80.113 Y101.308 E33.9072
G1 X80.125 Y101.268 E33.91115
G1 X80.338 Y100.596 E33.97777
G1 X80.528 Y100.129 E34.02541
G1 X80.82 Y99.657 E34.07786
G1 X80.955 Y99.476 E34.0992
G1 X81.286 Y99.098 E34.14668
G1 X81.615 Y98.778 E34.19005
G1 X81.644 Y98.75 E34.19386
G1 X82.383 Y98.049 E34.29012
G1 X82.418 Y98.017 E34.2946
G1 X82.906 Y97.568 E34.35726
G10
G0 F4320 X85.747 Y99.004
G0 X98.812 Y105.609
G0 X99.068 Y105.74
;TYPE:SUPPORT
G11
G1 F1800 X135.326 Y105.722 E37.78365
G1 X135.511 Y105.535 E37.8085
G1 X149.438 Y105.535 E39.12461
G1 X149.438 Y127.154 E41.1676
G1 X99.068 Y127.154 E45.92757
G1 X99.068 Y105.74 E47.95119
G0 F4320 X100.268 Y113.497
G1 F1800 X100.268 Y119.397 E48.50874
G1 X100.618 Y119.747 E48.55551
G1 X120.818 Y119.747 E50.46441
G1 X121.168 Y119.397 E50.51119
G1 X121.168 Y113.497 E51.06874
G1 X120.818 Y113.147 E51.11551
G1 X100.618 Y113.147 E53.02441
G1 X100.268 Y113.497 E53.07119
G0 F4320 X100.319 Y113.249
G1 F1800 X100.319 Y105.879 E53.76765
G0 F4320 X99.208 Y107.318
G1 F1800 X149.298 Y107.318 E58.50116
G0 F4320 X149.298 Y109.651
G1 F1800 X99.208 Y109.651 E63.23466
G0 F4320 X99.208 Y111.984
G1 F1800 X149.298 Y111.984 E67.96817
G0 F4320 X149.298 Y114.317
G1 F1800 X121.308 Y114.317 E70.61322
G0 F4320 X121.308 Y116.65
G1 F1800 X149.298 Y116.65 E73.25828
G0 F4320 X149.298 Y118.983
G1 F1800 X121.307 Y118.983 E75.90343
G0 F4320 X118.983 Y119.887
G1 F1800 X118.983 Y127.014 E76.57693
G0 F4320 X116.65 Y127.014
G1 F1800 X116.65 Y119.887 E77.25043
G0 F4320 X114.317 Y119.887
G1 F1800 X114.317 Y127.014 E77.92393
G0 F4320 X111.984 Y127.014
G1 F1800 X111.984 Y119.887 E78.59743
G0 F4320 X109.651 Y119.887
G1 F1800 X109.651 Y127.014 E79.27094
G0 F4320 X107.318 Y127.014
G1 F1800 X107.318 Y119.887 E79.94444
G0 F4320 X104.985 Y119.887
G1 F1800 X104.985 Y127.014 E80.61794
G0 F4320 X102.652 Y127.014
G1 F1800 X102.652 Y119.887 E81.29144
G0 F4320 X100.319 Y119.645
G1 F1800 X100.319 Y127.014 E81.98781
G0 F4320 X99.207 Y125.982
G1 F1800 X149.298 Y125.982 E86.72141
G0 F4320 X149.298 Y123.649
G1 F1800 X99.207 Y123.649 E91.45501
G0 F4320 X99.207 Y121.316
G1 F1800 X149.298 Y121.316 E96.18861
G0 F4320 X146.979 Y127.014
G1 F1800 X146.979 Y105.675 E98.20515
G0 F4320 X144.646 Y105.675
G1 F1800 X144.646 Y127.014 E100.22168
G0 F4320 X142.313 Y127.014
G1 F1800 X142.313 Y105.675 E102.23822
G0 F4320 X139.98 Y105.675
G1 F1800 X139.98 Y127.014 E104.25475
G0 F4320 X137.647 Y127.014
G1 F1800 X137.647 Y105.675 E106.27129
G0 F4320 X135.314 Y105.862
G1 F1800 X135.314 Y127.014 E108.27015
G0 F4320 X132.981 Y127.014
G1 F1800 X132.981 Y105.863 E110.26892
G0 F4320 X130.648 Y105.864
G1 F1800 X130.648 Y127.014 E112.2676
G0 F4320 X128.315 Y127.014
G1 F1800 X128.315 Y105.865 E114.26618
G0 F4320 X125.982 Y105.866
G1 F1800 X125.982 Y127.014 E116.26466
G0 F4320 X123.649 Y127.014
G1 F1800 X123.649 Y105.867 E118.26305
G0 F4320 X121.316 Y105.868
G1 F1800 X121.316 Y127.014 E120.26135
G0 F4320 X118.983 Y113.007
G1 F1800 X118.983 Y105.87 E120.9358
G0 F4320 X116.65 Y105.871
G1 F1800 X116.65 Y113.007 E121.61015
G0 F4320 X114.317 Y113.007
G1 F1800 X114.317 Y105.872 E122.28441
G0 F4320 X111.984 Y105.873
G1 F1800 X111.984 Y113.007 E122.95857
G0 F4320 X109.651 Y113.007
G1 F1800 X109.651 Y105.874 E123.63264
G0 F4320 X107.318 Y105.875
G1 F1800 X107.318 Y113.007 E124.30661
G0 F4320 X104.985 Y113.007
G1 F1800 X104.985 Y105.877 E124.9804
G0 F4320 X102.652 Y105.878
G1 F1800 X102.652 Y113.007 E125.65409
G0 F4320 X100.128 Y114.317
G1 F1800 X99.208 Y114.317 E125.74103
G0 F4320 X99.208 Y116.65
G1 F1800 X100.128 Y116.65 E125.82797
G0 F4320 X100.127 Y118.983
G1 F1800 X99.207 Y118.983 E125.91491
G10
G0 F4320 X98.852 Y120.768
G0 X96.079 Y134.787
G0 X91.028 Y160.324
G0 X89.789 Y166.584
G0 X89.739 Y166.843
G11
G1 F1800 X125.039 Y166.843 E129.25076
G1 X125.039 Y190.643 E131.49986
G1 X89.739 Y190.643 E134.83571
G1 X89.739 Y166.843 E137.08481
G0 F4320 X89.878 Y167.976
G1 F1800 X124.898 Y167.976 E140.3942
G0 F4320 X123.649 Y166.983
G1 F1800 X123.649 Y190.503 E142.61684
G0 F4320 X124.898 Y188.973
G1 F1800 X89.878 Y188.973 E145.92623
G0 F4320 X90.987 Y190.503
G1 F1800 X90.987 Y166.983 E148.14887
G0 F4320 X93.32 Y166.983
G1 F1800 X93.32 Y190.503 E150.37151
G0 F4320 X95.653 Y190.503
G1 F1800 X95.653 Y166.983 E152.59415
G0 F4320 X97.986 Y166.983
G1 F1800 X97.986 Y190.503 E154.81679
G0 F4320 X100.319 Y190.503
G1 F1800 X100.319 Y166.983 E157.03943
G0 F4320 X102.652 Y166.983
G1 F1800 X102.652 Y190.503 E159.26207
G0 F4320 X104.985 Y190.503
G1 F1800 X104.985 Y166.983 E161.48471
G0 F4320 X107.318 Y166.983
G1 F1800 X107.318 Y190.503 E163.70735
G0 F4320 X109.651 Y190.503
G1 F1800 X109.651 Y166.983 E165.92999
G0 F4320 X111.984 Y166.983
G1 F1800 X111.984 Y190.503 E168.15263
G0 F4320 X114.317 Y190.503
G1 F1800 X114.317 Y166.983 E170.37527
G0 F4320 X116.65 Y166.983
G1 F1800 X116.65 Y190.503 E172.59791
G0 F4320 X118.983 Y190.503
G1 F1800 X118.983 Y166.983 E174.82055
G0 F4320 X121.316 Y166.983
G1 F1800 X121.316 Y190.503 E177.04319
G0 F4320 X124.898 Y186.64
G1 F1800 X89.878 Y186.64 E180.35258
G0 F4320 X89.878 Y184.307
G1 F1800 X124.898 Y184.307 E183.66197
G0 F4320 X124.898 Y181.974
G1 F1800 X89.878 Y181.974 E186.97136
G0 F4320 X89.878 Y179.641
G1 F1800 X124.898 Y179.641 E190.28075
G0 F4320 X124.898 Y177.308
G1 F1800 X89.878 Y177.308 E193.59014
G0 F4320 X89.878 Y174.975
G1 F1800 X124.898 Y174.975 E196.89953
G0 F4320 X124.898 Y172.642
G1 F1800 X89.878 Y172.642 E200.20892
G0 F4320 X89.878 Y170.309
G1 F1800 X124.898 Y170.309 E203.51831
G10
G0 F4320 X147.478 Y164.256
G0 X147.73 Y164.19
G11
G1 F1800 X152.849 Y164.34 E204.00226
G1 X153.147 Y164.25 E204.03168
G1 X154.348 Y164.828 E204.15763
G1 X154.766 Y164.851 E204.19719
G1 X158.036 Y163.681 E204.52539
G1 X158.241 Y163.228 E204.57238
G1 X158.187 Y163.09 E204.58638
G1 X159.398 Y162.511 E204.71323
G1 X160.214 Y162.395 E204.79112
G1 X160.905 Y163.039 E204.88038
G1 X160.962 Y163.135 E204.89093
G1 X161.081 Y163.302 E204.91031
G1 X161.62 Y164.975 E205.07641
G1 X158.985 Y165.855 E205.33894
G1 X158.84 Y165.855 E205.35264
G1 X157.043 Y166.456 E205.5317
G1 X156.774 Y166.831 E205.57531
G1 X156.774 Y183.114 E207.11406
G1 X156.554 Y183.386 E207.14712
G1 X156.554 Y191.141 E207.87996
G1 X156.811 Y191.518 E207.92308
G1 X156.956 Y191.575 E207.9378
G1 X156.938 Y191.637 E207.94391
G1 X156.507 Y192.604 E208.04395
G1 X155.648 Y192.239 E208.13215
G1 X155.224 Y192.25 E208.17223
G1 X153.574 Y193.041 E208.34515
G1 X153.383 Y193.186 E208.36781
G1 X152.931 Y193.155 E208.41063
G1 X152.892 Y193.182 E208.41511
G1 X152.421 Y193.148 E208.45973
G1 X152.325 Y193.213 E208.47069
G1 X147.828 Y193.183 E208.89567
G1 X147.814 Y193.195 E208.89741
G1 X147.779 Y193.194 E208.90072
G1 X148.341 Y191.625 E209.05821
G1 X148.337 Y165.826 E211.49622
G1 X147.73 Y164.19 E211.66112
G0 F4320 X149.312 Y164.377
G1 F1800 X149.312 Y193.053 E214.371
G0 F4320 X148.48 Y191.306
G1 F1800 X156.498 Y191.306 E215.1287
G0 F4320 X156.311 Y192.369
G1 F1800 X156.311 Y164.447 E217.76733
G0 F4320 X158.358 Y163.31
G1 F1800 X160.915 Y163.31 E218.00897
G0 F4320 X160.977 Y163.438
G1 F1800 X160.977 Y165.043 E218.16064
G0 F4320 X159.178 Y165.643
G1 F1800 X148.417 Y165.643 E219.17755
G0 F4320 X148.477 Y167.976
G1 F1800 X156.634 Y167.976 E219.94839
G0 F4320 X156.634 Y170.309
G1 F1800 X148.477 Y170.309 E220.71923
G0 F4320 X148.478 Y172.642
G1 F1800 X156.634 Y172.642 E221.48997
G0 F4320 X156.634 Y174.975
G1 F1800 X148.478 Y174.975 E222.26071
G0 F4320 X148.478 Y177.308
G1 F1800 X156.634 Y177.308 E223.03145
G0 F4320 X156.634 Y179.641
G1 F1800 X148.479 Y179.641 E223.8021
G0 F4320 X148.479 Y181.974
G1 F1800 X156.634 Y181.974 E224.57275
G0 F4320 X156.414 Y184.307
G1 F1800 X148.479 Y184.307 E225.32261
G0 F4320 X148.48 Y186.64
G1 F1800 X156.414 Y186.64 E226.07237
G0 F4320 X156.414 Y188.973
G1 F1800 X148.48 Y188.973 E226.82213
G0 F4320 X151.645 Y193.068
G1 F1800 X151.645 Y164.446 E229.52691
G0 F4320 X153.978 Y164.805
G1 F1800 X153.978 Y192.693 E232.16233
G0 F4320 X158.644 Y165.773
G1 F1800 X158.644 Y163.026 E232.42192
G10
;MESH:Case - TopV2.stl
G0 F4320 X154.63 Y132.661
G0 X154.173 Y131.542
G0 X151.045 Y100.44
;TYPE:WALL-INNER
G11
G1 F1800 X153.993 Y101.637 E232.72259
G1 X154.976 Y102.517 E232.84727
G1 X155.411 Y103.722 E232.96834
G1 X155.432 Y129.05 E235.36183
G1 X154.972 Y130.382 E235.495
G1 X153.995 Y131.257 E235.61894
G1 X151.046 Y132.453 E235.91967
G1 X150.595 Y132.609 E235.96477
G1 X143.686 Y133.301 E236.62094
G1 X143.137 Y133.322 E236.67285
G1 X89.876 Y133.322 E241.70602
G1 X85.601 Y132.287 E242.12168
G1 X85.392 Y132.121 E242.1469
G1 X84.102 Y130.894 E242.31514
G1 X83.599 Y129.23 E242.47942
G1 X83.582 Y129.128 E242.48919
G1 X83.583 Y103.824 E244.88042
G1 X84.145 Y101.96 E245.0644
G1 X85.584 Y100.596 E245.25177
G1 X89.713 Y99.592 E245.65333
G1 X89.843 Y99.572 E245.66575
G1 X143.429 Y99.572 E250.72963
G1 X150.594 Y100.284 E251.41006
G1 X151.045 Y100.44 E251.45516
G0 F4320 X97.665 Y104.337
G0 X97.343 Y128.879
G1 F1800 X151.163 Y128.879 E256.54115
G1 X151.163 Y103.81 E258.91017
G1 X134.213 Y103.81 E260.51194
G1 X134.213 Y103.997 E260.52961
G1 X97.343 Y104.015 E264.01383
G1 X97.343 Y128.879 E266.36348
G0 F4320 X97.693 Y128.529
G1 F1800 X150.813 Y128.529 E271.38332
G1 X150.813 Y104.16 E273.68619
G1 X134.563 Y104.16 E275.22181
G1 X134.563 Y104.347 E275.23948
G1 X97.693 Y104.365 E278.7237
G1 X97.693 Y128.529 E281.0072
G0 F4320 X97.623 Y128.599
G0 X97.665 Y104.337
G0 X151.125 Y100.202
G0 X151.16 Y100.109
G1 F1800 X154.183 Y101.336 E281.31551
G1 X155.275 Y102.314 E281.45404
G1 X155.761 Y103.661 E281.58936
G1 X155.782 Y129.109 E283.9942
G1 X155.273 Y130.582 E284.14147
G1 X154.183 Y131.558 E284.27973
G1 X151.161 Y132.784 E284.58792
G1 X150.673 Y132.953 E284.63672
G1 X143.702 Y133.651 E285.29878
G1 X143.15 Y133.672 E285.35098
G1 X89.835 Y133.672 E290.38925
G1 X85.445 Y132.609 E290.81609
G1 X85.157 Y132.381 E290.8508
G1 X83.794 Y131.084 E291.0286
G1 X83.258 Y129.31 E291.20373
G1 X83.232 Y129.156 E291.21849
G1 X83.233 Y103.773 E293.61718
G1 X83.837 Y101.77 E293.81488
G1 X85.411 Y100.278 E294.01983
G1 X89.647 Y99.248 E294.4318
